!!!OTL: IN DER HEIMATH IST ES SCHOEN
!!!ARE: Europa, Mitteleuropa, Deutschland
!!!SCT: F0463
!!!YEM: Copyright 1995, estate of Helmut Schaffrath.
**kern
*ICvox
*Ivox
*M3/4
*k[f#]
*G:
{8.B
16c
=1
4.d
8B
8.g
16f#
=2
2e}
{8.e
16d
=3
4.c
8B
8.c
16e
=4
2d}
{8.B
16c
=5
4.d
8B
8.g
16d
=6
8f#
8e
4e}
{8e
8g
=7
4.f#
8d
12c#
12d
12e
=8
8e
8d
8.d
16c}
{8.B
16c
=9
4.d
8e
8f#
8g
=10
2e}
{8.g
16e
=11
4.e
8d
8.f#
16a
=12
2g}
{12g
12f#
12e
=13
8.e
16d
4d
12d
12f#
12a
=14
4g
4r}
==
!!!AGN: Heimat - Lied
!!!ONB: ESAC (Essen Associative Code) Database: FINK
!!!AMT: simple triple
!!!AIN: vox
!!!EED: Helmut Schaffrath
!!!EEV: 1.0
*-
